public/avatar/hat/80.svg

<svg xmlns:xlink="http://www.w3.org/1999/xlink" height="92.9" width="100.7" xmlns="http://www.w3.org/2000/svg"><use height="22.9" transform="translate(23.6 38.95)" width="30.35" xlink:href="#a"/><defs><g id="a"><path d="m11 4.05 2.15.45 1.15 2.1q.85 1.95.2 3.75-.7 1.8-2.5 1.05l-2.75-1Q7.6 9.8 5.5 9.5l-3.25-.3h-4.3l-3.65.35-3.1.6-1.75.35-2.4.5q-1.95-.5-1.55-2.45.35-1.95 1.05-2.85l1.15-1.45 1.25-.25 1.8-.3 3.95-.45 3.5-.2h3.25l4.15.25 3.95.5 1.45.25M9.25 10.4l1.05-2.35q.45-1.65-.75-4.25 1.2 2.6.75 4.25L9.25 10.4M5.6 3.3q.6 2.55.25 4.85L5.5 9.5l.35-1.35q.35-2.3-.25-4.85m-4.15-.25q.9 2.4.4 4.9l-.2 1.25.2-1.25q.5-2.5-.4-4.9m-10.7.65q-1.65 2.65-1.5 4.4l.2 2.4-.2-2.4q-.15-1.75 1.5-4.4m7.2 5.5v-.75l-.1-.8q-.15-2.2.35-4.6-.5 2.4-.35 4.6l.1.8v.75m-3.65.35q-.1-2.45.2-4.9l.2-1.4-.2 1.4q-.3 2.45-.2 4.9" fill="#666" fill-rule="evenodd" transform="translate(15.05 10.8)"/><path d="M-11.05 4q1-4.45 3.95-8.5l-1.1-1.9q4-3.35 8.4-3.9 5.15.7 8.4 3.3L7.2-4.8Q10.05-.6 11 4.05L9.55 3.8 5.6 3.3l-4.15-.25H-1.8l-3.5.2-3.95.45-1.8.3" fill-rule="evenodd" transform="translate(15.05 10.8)"/><path d="M-11.05 4q1-4.45 3.95-8.5l-1.1-1.9q4-3.35 8.4-3.9 5.15.7 8.4 3.3L7.2-4.8Q10.05-.6 11 4.05m-16.3-.8-.2 1.4q-.3 2.45-.2 4.9m3.9-6.5q-.5 2.4-.35 4.6l.1.8v.75m-8.5 1.3-.2-2.4q-.15-1.75 1.5-4.4m10.9 5.5.2-1.25q.5-2.5-.4-4.9M5.5 9.5l.35-1.35q.35-2.3-.25-4.85m3.95.5q1.2 2.6.75 4.25L9.25 10.4" fill="none" stroke="#333" stroke-linecap="round" stroke-linejoin="round" transform="translate(15.05 10.8)"/><path d="m11 4.05 2.15.45 1.15 2.1q.85 1.95.2 3.75-.7 1.8-2.5 1.05l-2.75-1Q7.6 9.8 5.5 9.5l-3.25-.3h-4.3l-3.65.35-3.1.6-1.75.35-2.4.5q-1.95-.5-1.55-2.45.35-1.95 1.05-2.85l1.15-1.45 1.25-.25 1.8-.3 3.95-.45 3.5-.2h3.25l4.15.25 3.95.5 1.45.25" fill="none" stroke="#000" stroke-linecap="round" stroke-linejoin="round" transform="translate(15.05 10.8)"/><path d="M2.9-6.15 1.95 0l-2 1.35L-2.1-.3l-1.1-5.6 1.9 1.45L-.15-6.3 1.1-4.55l1.8-1.6" fill="red" fill-rule="evenodd" transform="translate(15.05 10.8)"/></g></defs></svg>

<?xml version="1.0" encoding="UTF-8" standalone="no"?>
<svg xmlns:xlink="http://www.w3.org/1999/xlink" height="92.9px" width="100.7px" xmlns="http://www.w3.org/2000/svg">
  <g transform="matrix(1.0, 0.0, 0.0, 1.0, 38.65, 49.75)">
    <use height="22.9" transform="matrix(1.0, 0.0, 0.0, 1.0, -15.05, -10.8)" width="30.35" xlink:href="#shape0"/>
  </g>
  <defs>
    <g id="shape0" transform="matrix(1.0, 0.0, 0.0, 1.0, 15.05, 10.8)">
      <path d="M11.0 4.05 L13.15 4.5 14.3 6.6 Q15.15 8.55 14.5 10.35 13.8 12.15 12.0 11.4 L9.25 10.4 Q7.6 9.8 5.5 9.5 L2.25 9.2 1.65 9.2 -2.05 9.2 -5.7 9.55 -8.8 10.15 -10.55 10.5 -12.95 11.0 Q-14.9 10.5 -14.5 8.55 -14.15 6.6 -13.45 5.7 L-12.3 4.25 -11.05 4.0 -9.25 3.7 -5.3 3.25 -1.8 3.05 1.45 3.05 5.6 3.3 9.55 3.8 11.0 4.05 M9.25 10.4 L10.3 8.05 Q10.75 6.4 9.55 3.8 10.75 6.4 10.3 8.05 L9.25 10.4 M5.6 3.3 Q6.2 5.85 5.85 8.15 L5.5 9.5 5.85 8.15 Q6.2 5.85 5.6 3.3 M1.45 3.05 Q2.35 5.45 1.85 7.95 L1.65 9.2 1.85 7.95 Q2.35 5.45 1.45 3.05 M-9.25 3.7 Q-10.9 6.35 -10.75 8.1 L-10.55 10.5 -10.75 8.1 Q-10.9 6.35 -9.25 3.7 M-2.05 9.2 L-2.05 8.45 -2.15 7.65 Q-2.3 5.45 -1.8 3.05 -2.3 5.45 -2.15 7.65 L-2.05 8.45 -2.05 9.2 M-5.7 9.55 Q-5.8 7.1 -5.5 4.65 L-5.3 3.25 -5.5 4.65 Q-5.8 7.1 -5.7 9.55" fill="#666666" fill-rule="evenodd" stroke="none"/>
      <path d="M-11.05 4.0 Q-10.05 -0.45 -7.1 -4.5 L-8.2 -6.4 Q-4.2 -9.75 0.2 -10.3 5.35 -9.6 8.6 -7.0 L7.2 -4.8 Q10.05 -0.6 11.0 4.05 L9.55 3.8 5.6 3.3 1.45 3.05 -1.8 3.05 -5.3 3.25 -9.25 3.7 -11.05 4.0" fill="#000000" fill-rule="evenodd" stroke="none"/>
      <path d="M-11.05 4.0 Q-10.05 -0.45 -7.1 -4.5 L-8.2 -6.4 Q-4.2 -9.75 0.2 -10.3 5.35 -9.6 8.6 -7.0 L7.2 -4.8 Q10.05 -0.6 11.0 4.05 M-5.3 3.25 L-5.5 4.65 Q-5.8 7.1 -5.7 9.55 M-1.8 3.05 Q-2.3 5.45 -2.15 7.65 L-2.05 8.45 -2.05 9.2 M-10.55 10.5 L-10.75 8.1 Q-10.9 6.35 -9.25 3.7 M1.65 9.2 L1.85 7.95 Q2.35 5.45 1.45 3.05 M5.5 9.5 L5.85 8.15 Q6.2 5.85 5.6 3.3 M9.55 3.8 Q10.75 6.4 10.3 8.05 L9.25 10.4" fill="none" stroke="#333333" stroke-linecap="round" stroke-linejoin="round" stroke-width="1.0"/>
      <path d="M11.0 4.05 L13.15 4.5 14.3 6.6 Q15.15 8.55 14.5 10.35 13.8 12.15 12.0 11.4 L9.25 10.4 Q7.6 9.8 5.5 9.5 L2.25 9.2 1.65 9.2 -2.05 9.2 -5.7 9.55 -8.8 10.15 -10.55 10.5 -12.95 11.0 Q-14.9 10.5 -14.5 8.55 -14.15 6.6 -13.45 5.7 L-12.3 4.25 -11.05 4.0 -9.25 3.7 -5.3 3.25 -1.8 3.05 1.45 3.05 5.6 3.3 9.55 3.8 11.0 4.05" fill="none" stroke="#000000" stroke-linecap="round" stroke-linejoin="round" stroke-width="1.0"/>
      <path d="M2.9 -6.15 L1.95 0.0 -0.05 1.35 -2.1 -0.3 -3.2 -5.9 -1.3 -4.45 -0.15 -6.3 1.1 -4.55 2.9 -6.15" fill="#ff0000" fill-rule="evenodd" stroke="none"/>
    </g>
  </defs>
</svg>
